!!!OTL: DIE HUSSITEN ZOGEN VOR NAUMBURG
!!!ARE: Europa, Mitteleuropa, Deutschland, Halle a.d. Saale
!!!SCT: B0707
!!!YEM: Copyright 1995, estate of Helmut Schaffrath.
**kern
*ICvox
*Ivox
*M2/4
*k[f#]
*G:
=1
{8d
8g
8g
8g
=2
8g
8g
8b
8g}
=3
{8dd
8a
8a
8g
=4
8f#
8e
8f#
8d}
=5
{8.ee
16cc
8cc
8cc
=6
8cc
8cc
4ee}
=7
{8.dd
16b
8b
8b
=8
8b
8b
4dd}
=9
{8.a
16b
8cc
8f#
=10
8a
8g
4r}
=11
{8.ee
16cc
8cc
8cc
=12
8cc
8cc
4ee}
=13
{8.dd
16b
8b
8b
=14
8b
8b
4dd}
=15
{8.a
16b
8cc
8f#
=16
8a
8g
4r}
==
!!!AGN: Baenkel -, Scherz - Lied
!!!ONB: ESAC (Essen Associative Code) Database: BOEHME
!!!AMT: simple duple
!!!AIN: vox
!!!EED: Helmut Schaffrath
!!!EEV: 1.0
*-
